X:1
T:牧羊曲
M:4/4
L:1/8
V:1
Q:1/4=80
K:C
|z6G,A,|"C"C3GE3D|"Em"E6G,A,|"C"C3GD3C|"Dm"D6EG|
w: 日 出|嵩 山 坳|晨 钟|惊 飞 鸟|林|
|"Am"A6EG|"C"C3EDB,A,2|"Dm"zD2EDDB,A,|"G"G,6GA|
w: 间 小 溪|水 潺 潺|坡 上 青 青|草 野 果|
|"Am"c3A|"C"c6Ec|"Em"B3A|B6AE|"Dm"D4EB2A|"G"G6GA|"Am"c3A|
w:香|山 花|俏|狗 儿|跳 羊 儿|跑 举 起|鞭 |
|"C"c6Ec|"Em"B3A|B6AE|"Dm"D3E|"G"G2z2zDDA,|"C"C6z2|
w: 儿|轻 轻|摇|小 曲|漫 山|飘 漫 山|飘|